X: 31
T: Duck Dance Song (a)
C: Anon.
%%abc-version 2.0
%%abcx-abcm2ps-target-version 5.9.1 (29 Sep 2008)
%%abc-creator hum2abc beta
%%abcx-conversion-date 2020/08/10 20:56:09
%%abc-copyright Electronic Copyright 2000 David Huron
%%abc-edited-by David Huron
%%abcx-initial-encoding-date August 28, 2000
%%humdrum-veritas 3010135330
%%humdrum-veritas-data 749640267
%%linebreak <none>
%%barnumbers 0
L: 1/16
M: 2/4
Q: 1/4=76
K: G clef=bass
B,4G,3 G,[M:3/4] | 
D,2 G, G, G, G, G,2 G, G, G,2[M:2/4] | 
E,2> E,2 E,2 z2 | 
B,4G,2 z2 | 
B,4G,2 D,2[M:5/8] | 
G,2 G, G, G,2 G, G, G,2[M:2/4] | 
E,4E,2 z2 | 
B,4G,2 B,2 | 
(3A,2 G,2 E,2 E,2 E, z | 
A,2> A,2 G,2 G, z | 
G,2> E,2 E,2 E, z | 
G,2 A, A, G,2 G, z | 
G,2> E,2 E,2 E, z | 
A,2 A, A, G,2 G, z | 
G,2> E,2 E,2 E, z | 
G,2 A, A, G,2 G, z | 
G,2> E,2 E,2 E, z ]|:  
B,4G,2 B,2 [I:setbarnb 19]| 
(3A,2 G,2 E,2 E,2 E, z | 
A,2 A, A, G,2 G, z | 
G,2> E,2 E,2 E, z |]  
G,2 A, A, G,2 G, z [I:setbarnb 23]| 
G,2> E,2 E,2 E, z :|]  


